ix/group-11_linear.svg

<svg viewBox="0 0 24 24" fill="none" xmlns="http://www.w3.org/2000/svg" height="1em" width="1em">
  <path d="M3 17.9799L5.54999 17.9899C6.45999 17.9899 7.31 17.5399 7.81 16.7899L14.2 7.20994C14.7 6.45994 15.55 5.99993 16.46 6.00993L21.01 6.02994" stroke="#292D32" stroke-width="1.5" stroke-linecap="round" stroke-linejoin="round"/>
  <path d="M19 19.98L21 17.98" stroke="#292D32" stroke-width="1.5" stroke-linecap="round" stroke-linejoin="round"/>
  <path d="M8.89001 8.61993L7.81 7.11993C7.3 6.40993 6.47999 5.98993 5.60999 5.99993L3 6.00994" stroke="#292D32" stroke-width="1.5" stroke-linecap="round" stroke-linejoin="round"/>
  <path d="M12.97 15.3799L14.19 16.9499C14.7 17.6099 15.5 17.9999 16.34 17.9999L21.01 17.9799" stroke="#292D32" stroke-width="1.5" stroke-linecap="round" stroke-linejoin="round"/>
  <path d="M21 6.02002L19 4.02002" stroke="#292D32" stroke-width="1.5" stroke-linecap="round" stroke-linejoin="round"/>
</svg>

<svg viewBox="0 0 24 24" fill="none" xmlns="http://www.w3.org/2000/svg" height="1em" width="1em">
  <path d="m3 17.98 2.55.01c.91 0 1.76-.45 2.26-1.2l6.39-9.58a2.69 2.69 0 0 1 2.26-1.2l4.55.02M19 19.98l2-2M8.89 8.62l-1.08-1.5A2.675 2.675 0 0 0 5.61 6L3 6.01m9.97 9.37 1.22 1.57c.51.66 1.31 1.05 2.15 1.05l4.67-.02M21 6.02l-2-2" stroke="#292D32" stroke-width="1.5" stroke-linecap="round" stroke-linejoin="round"/>
</svg>
